!!!COM:	Josquin des Prez
!!!CDT:	~1450-1521/08/27
!!!OTL@@LAT:	Illibata Dei virgo nutrix
!!!OTL2@@LAT:	Ave virginum decus
!!!AGN:	Motet
!!!SCT:	NJE 24.3
!!!SCA:	New Josquin Edition 24.3
!!!ONB: Ed. Jesse Rodin from Cappella Sistina 15
!!!ONB:	Illibata Dei virgo nutrix/La mi la
!!!voices:	5
**kern	**kern	**kern	**kern	**kern
*staff5	*staff4	*staff3	*staff2	*staff1
*Ivox	*Ivox	*Ivox	*Ivox	*Ivox
*I"Bassus	*I"Altus2	*I"Tenor	*I"Altus1	*I"Superius
*I'B	*I'A2	*I'T	*I'A1	*I'S
*>[A,B]	*>[A,B]	*>[A,B]	*>[A,B]	*>[A,B]
*>Part1[A]	*>Part1[A]	*>Part1[A]	*>Part1[A]	*>Part1[A]
*>Part2[B]	*>Part2[B]	*>Part2[B]	*>Part[B]	*>Part[B]
*clefF4	*clefGv2	*clefGv2	*clefGv2	*clefG2
*k[b-]	*k[b-]	*k[b-]	*k[b-]	*k[b-]
*>A	*>A	*>A	*>A	*>A
*M3/1	*M3/1	*M3/1	*M3/1	*M3/1
*met(O)	*met(O)	*met(O)	*met(O)	*met(O)
=1-	=1-	=1-	=1-	=1-
0.r	0.r	0.r	0.r	1g
.	.	.	.	2b-\
.	.	.	.	2cc\
.	.	.	.	1dd
=2	=2	=2	=2	=2
0.r	1G	0.r	0.r	2ee-i\
.	.	.	.	1dd
.	2B-\	.	.	.
.	2c\	.	.	4cc\
.	.	.	.	4b-\
.	1d	.	.	1a
=3	=3	=3	=3	=3
0.r	2e-i\	0.r	0.r	2g/
.	1d	.	.	1b-
.	4c\	.	.	4a/
.	4B-\	.	.	4g/
.	1A	.	.	2f/
.	.	.	.	[2cc\
=4	=4	=4	=4	=4
0.r	2G/	0.r	0.r	4cc\]
.	.	.	.	4b-\
.	1B-	.	.	1dd
.	4A/	.	.	4cc\
.	4G/	.	.	4b-\
.	2F/	.	.	1a
.	[2c\	.	.	.
=5	=5	=5	=5	=5
0.r	4c\]	0.r	0.r	2g/
.	4B-\	.	.	.
.	1d	.	.	1b-
.	4c\	.	.	4a/
.	4B-\	.	.	4g/
.	1A	.	.	2.f#i/
.	.	.	.	4e/
=6	=6	=6	=6	=6
0.r	0.G	0.r	0.r	0.g
=7	=7	=7	=7	=7
0.r	0.r	0.r	1G	0.r
.	.	.	2B-\	.
.	.	.	2c\	.
.	.	.	1d	.
=8	=8	=8	=8	=8
1GG	0.r	0.r	2e-i\	0.r
.	.	.	1d	.
2BB-/	.	.	.	.
2C/	.	.	4c\	.
.	.	.	4B-\	.
1D	.	.	1A	.
=9	=9	=9	=9	=9
2E-i\	0.r	0.r	2G/	0.r
1D	.	.	1B-	.
4C/	.	.	4A/	.
4BB-/	.	.	4G/	.
1AA	.	.	2F/	.
.	.	.	[2c\	.
=10	=10	=10	=10	=10
2GG/	0.r	0.r	4c\]	0.r
.	.	.	4B-\	.
1BB-	.	.	1d	.
4AA/	.	.	4c\	.
4GG/	.	.	4B-\	.
2FF/	.	.	1A	.
[2C/	.	.	.	.
=11	=11	=11	=11	=11
4C/]	0.r	0.r	2G/	0.r
4BB-/	.	.	.	.
1D	.	.	1B-	.
4C/	.	.	4A/	.
4BB-/	.	.	4G/	.
1AA	.	.	2.F#i/	.
.	.	.	4E/	.
=12	=12	=12	=12	=12
0GG	1r	0.r	0.G	0.r
.	1r	.	.	.
1GG	1B-	.	.	.
=13	=13	=13	=13	=13
1.D	2B-\	0.r	0.r	0.r
.	1A	.	.	.
2E\	2G/	.	.	.
1F	1A	.	.	.
=14	=14	=14	=14	=14
2G\	2.G/	0.r	0.r	0.r
1B-	.	.	.	.
.	4F/	.	.	.
.	2D/	.	.	.
2G\	2E/	.	.	.
1A	1F	.	.	.
=15	=15	=15	=15	=15
0G	2G/	0.r	0.r	0.r
.	2.B-\	.	.	.
.	4c\	.	.	.
.	1d	.	.	.
1G	.	.	.	.
.	4c\	.	.	.
.	4B-\	.	.	.
=16	=16	=16	=16	=16
1F	2A/	0.r	0.r	0.r
.	2d\	.	.	.
2F\	2c\	.	.	.
1G	1B-	.	.	.
2G\	4A/	.	.	.
.	4G/	.	.	.
=17	=17	=17	=17	=17
2A\	2F/	0.r	0.r	0.r
2.c\	2.A/	.	.	.
4B-\	4G/	.	.	.
4A\	4F#i/	.	.	.
4G\	4E/	.	.	.
1A	1F#i	.	.	.
=18	=18	=18	=18	=18
0G	0G	0.r	1.B-	0.r
.	.	.	2G/	.
1r	1r	.	1A	.
=19	=19	=19	=19	=19
0G	0.r	[0.d	0G	1b-
.	.	.	.	2b-\
.	.	.	.	2g/
1D	.	.	1F	1a
=20	=20	=20	=20	=20
2r	1.B-	0.d_	0G	0g
1.GG	.	.	.	.
.	2G/	.	.	.
1D	1A	.	1D	1f
=21	=21	=21	=21	=21
1GG	1G	0.d]	0.B-	2g/
.	.	.	.	2.dd\
0G	1G	.	.	.
.	.	.	.	4cc\
.	.	.	.	1b-
.	2.d\	.	.	.
.	.	.	.	4a/
.	4e\	.	.	4g/
=22	=22	=22	=22	=22
1.F	2.f\	[0.A	1c	1.a
.	4e\	.	.	.
.	2c\	.	1A	.
1.D	2d\	.	.	2f/
.	2A/	.	2D/	1f
.	2d\	.	2F/	.
=23	=23	=23	=23	=23
2.AA/	2e\	0.A_	2E/	2r
.	2.c\	.	2.A/	1e
4BB-/	.	.	.	.
2C/	.	.	.	.
.	4B-\	.	4G/	.
2.D\	4A/	.	4F/	1f
.	4G/	.	4E/	.
.	2F/	.	1D	.
4C/	.	.	.	.
2D\	2f\	.	.	4e/
.	.	.	.	4d/
=24	=24	=24	=24	=24
2AA/	2e\	0.A]	0.r	2c/
1D	2d\	.	.	1f
.	2f\	.	.	.
2E\	4e\	.	.	2g/
.	4d\	.	.	.
1F	1c	.	.	1a
=25	=25	=25	=25	=25
0BB-	1r	[0.d	0B-	2.b-\
.	.	.	.	4a/
.	2.B-\	.	.	2g/
.	.	.	.	2f/
.	4A/	.	.	.
1BB-	2G/	.	2.B-\	2.dd\
.	2F/	.	.	.
.	.	.	4A/	4cc\
=26	=26	=26	=26	=26
2r	2.d\	0.d_	2G/	2b-\
1D	.	.	2F/	2a/
.	4c\	.	.	.
.	2B-\	.	2.d\	1r
2D\	2A/	.	.	.
.	.	.	4c\	.
1D	2.f\	.	2B-\	2.dd\
.	.	.	2A/	.
.	4e\	.	.	4cc\
=27	=27	=27	=27	=27
2r	2.d\	0.d]	2.f\	2b-\
1D	.	.	.	1a
.	4c\	.	4e\	.
.	2B-\	.	2d\	.
2GG/	4A/	.	2.d\	1g
.	4G/	.	.	.
1D	1A	.	.	.
.	.	.	4c\	.
.	.	.	2A/	2f#i/
=28	=28	=28	=28	=28
0GG	0G	0.r	1B-	1g
.	.	.	1r	2r
.	.	.	.	2g/
1r	1r	.	1r	2a/
.	.	.	.	2f/
=29	=29	=29	=29	=29
0.r	2r	0.r	0.r	1e
.	2c\	.	.	.
.	2d\	.	.	1d
.	2B-\	.	.	.
.	1A	.	.	2r
.	.	.	.	2f/
=30	=30	=30	=30	=30
0.r	1G	0.r	0.r	2g/
.	.	.	.	2g/
.	2r	.	.	2a/
.	2B-\	.	.	2g/
.	2c\	.	.	1e
.	2c\	.	.	.
=31	=31	=31	=31	=31
0.r	2d\	0.r	0.r	2r
.	2c\	.	.	1a
.	2A/	.	.	.
.	1d	.	.	2a/
.	.	.	.	2b-\
.	2e\	.	.	2cc\
=32	=32	=32	=32	=32
0.r	2f\	0.r	0.r	2.dd\
.	2.g\	.	.	.
.	.	.	.	4cc\
.	.	.	.	4b-\
.	4f\	.	.	4a/
.	4e\	.	.	2.cc\
.	4d\	.	.	.
.	2.f\	.	.	.
.	.	.	.	4b-\
.	.	.	.	4a/
.	4e-\	.	.	4g/
=33	=33	=33	=33	=33
0.r	4d\	0.r	0.r	2.b-\
.	4c\	.	.	.
.	2.e-\	.	.	.
.	.	.	.	4a/
.	.	.	.	4g/
.	4d\	.	.	4f/
.	4c\	.	.	2.a/
.	4B-\	.	.	.
.	2.d\	.	.	.
.	.	.	.	4g/
.	.	.	.	4f/
.	4c\	.	.	4e/
=34	=34	=34	=34	=34
0.r	4B-\	0.r	0.r	2d/
.	4A/	.	.	.
.	2G/	.	.	2.dd\
.	2.g\	.	.	.
.	.	.	.	4cc\
.	.	.	.	4b-\
.	4f\	.	.	4a/
.	2d\	.	.	2b-\
.	2c\	.	.	[2cc\
=35	=35	=35	=35	=35
0.r	2.f\	0.r	0.r	4cc\]
.	.	.	.	4b-\
.	.	.	.	4a/
.	4e\	.	.	4g/
.	2c\	.	.	2a/
.	2B-\	.	.	2.b-\
.	2.e-\	.	.	.
.	.	.	.	4a/
.	.	.	.	4g/
.	4d\	.	.	4f/
=36	=36	=36	=36	=36
0.r	4c\	0.r	0.r	2g/
.	4B-\	.	.	.
.	2c\	.	.	2.a/
.	2d\	.	.	.
.	.	.	.	4g/
.	2G/	.	.	1g
.	1A	.	.	.
.	.	.	.	2f#i/
=37	=37	=37	=37	=37
0GG	0.G	0.r	1r	0.g
.	.	.	1r	.
2.GG/	.	.	1G	.
4AA/	.	.	.	.
=38	=38	=38	=38	=38
2BB-/	0.r	0.r	1G	0.r
2.C/	.	.	.	.
.	.	.	0c	.
4BB-/	.	.	.	.
4AA/	.	.	.	.
4GG/	.	.	.	.
1AA	.	.	.	.
=39	=39	=39	=39	=39
1GG	0.r	0.r	1B-	0.r
2r	.	.	2A/	.
2G\	.	.	2.B-\	.
2.B-\	.	.	.	.
.	.	.	4A/	.
.	.	.	4G/	.
4A\	.	.	4F/	.
=40	=40	=40	=40	=40
2.G\	0.r	0.r	2.B-\	0.r
4F\	.	.	4c\	.
4D\	.	.	2.d\	.
4E\	.	.	.	.
2.F\	.	.	.	.
.	.	.	4e\	.
.	.	.	2.f\	.
4E\	.	.	.	.
4D\	.	.	.	.
4C/	.	.	4e\	.
=41	=41	=41	=41	=41
2BB-/	0.r	0.r	2d\	0.r
2F\	.	.	2c\	.
2G\	.	.	2B-\	.
1B-	.	.	2d\	.
.	.	.	1c	.
2A\	.	.	.	.
=42	=42	=42	=42	=42
1B-	2r	0.r	0.r	1d
.	1B-	.	.	.
1r	.	.	.	1f
.	2A/	.	.	.
1r	2B-\	.	.	1g
.	2c\	.	.	.
=43	=43	=43	=43	=43
0.r	2F/	0.r	0.r	2.a/
.	1f	.	.	.
.	.	.	.	4b-\
.	.	.	.	2cc\
.	2d\	.	.	1dd
.	1e-i	.	.	.
.	.	.	.	2cc\
=44	=44	=44	=44	=44
0.r	2r	0.r	0.r	2b-\
.	2.d\	.	.	2a/
.	.	.	.	2.dd\
.	4c\	.	.	.
.	2.B-\	.	.	.
.	.	.	.	4cc\
.	.	.	.	2.b-\
.	4A/	.	.	.
.	4G/	.	.	.
.	4F/	.	.	4a/
=45	=45	=45	=45	=45
0.r	2B-\	0.r	0.r	4g/
.	.	.	.	4f/
.	2.c\	.	.	2.a/
.	4B-\	.	.	4g/
.	4A/	.	.	1g
.	4G/	.	.	.
.	1A	.	.	.
.	.	.	.	2f#i/
=46	=46	=46	=46	=46
0GG	0.G	[0.G	1G	0.g
.	.	.	1d	.
1C	.	.	1e-i	.
=47	=47	=47	=47	=47
2BB-/	1.B-	0.G_	2d\	1r
2.E-i\	.	.	2.g\	.
.	.	.	.	1r
4D\	.	.	4f\	.
1C	1.c	.	1e-i	.
.	.	.	.	1g
4BB-/	.	.	4d\	.
4AA/	.	.	4c\	.
=48	=48	=48	=48	=48
0.GG	[0.d	0.G]	1B-	1.b-
.	.	.	1B-	.
.	.	.	.	2a/
.	.	.	1B-	1g
=49	=49	=49	=49	=49
0.r	1d]	[0.D	1A	[0.f
.	1r	.	2.F/	.
.	.	.	4G/	.
.	2.F/	.	2A/	.
.	.	.	2B-\	.
.	4G/	.	.	.
=50	=50	=50	=50	=50
0.r	2A/	0.D_	2A/	0.f_
.	2B-\	.	2.d\	.
.	2A/	.	.	.
.	.	.	4e\	.
.	2.d\	.	2f\	.
.	.	.	2F/	.
.	4e\	.	.	.
.	2f\	.	2B-\	.
=51	=51	=51	=51	=51
0.r	2F/	0.D]	2A/	0.f]
.	2B-\	.	2.d\	.
.	2A/	.	.	.
.	.	.	4c\	.
.	2.d\	.	2B-\	.
.	.	.	1A	.
.	4c\	.	.	.
.	2A/	.	.	.
=52	=52	=52	=52	=52
[0.GG	1.B-	[0.G	1.G	1g
.	.	.	.	1r
.	2G/	.	2.B-\	.
.	1G	.	.	1d
.	.	.	4A/	.
.	.	.	[2G/	.
=53	=53	=53	=53	=53
0GG]	1r	0.G_	2G/]	2e-i/
.	.	.	4F/	1d
.	.	.	4E/	.
.	1d	.	1D	.
.	.	.	.	2B-/
2C/	2e-i\	.	1r	2c/
2BB-/	[2d\	.	.	2d/
=54	=54	=54	=54	=54
2GG/	2d\]	0.G]	1d	1B-
2G\	2B-\	.	.	.
2C/	2c\	.	2e-i\	1r
2BB-/	2d\	.	1d	.
1GG	1B-	.	.	1d
.	.	.	2B-\	.
=55	=55	=55	=55	=55
0.r	1r	0.r	2c\	2e/
.	.	.	2d\	2.f/
.	1d	.	1B-	.
.	.	.	.	4e/
.	.	.	.	2d/
.	2e\	.	1r	2c/
.	[2f\	.	.	2B-/
=56	=56	=56	=56	=56
0.r	4f\]	0.r	0.r	2.f/
.	4e\	.	.	.
.	2d\	.	.	.
.	.	.	.	4g/
.	2c\	.	.	2a/
.	2B-\	.	.	1b-
.	1c	.	.	.
.	.	.	.	2a/
=57	=57	=57	=57	=57
2r	0.r	0.r	1B-	1b-
2D\	.	.	.	.
2C/	.	.	2A/	1r
2BB-/	.	.	1G	.
1AA	.	.	.	1r
.	.	.	2F#i/	.
=58	=58	=58	=58	=58
1GG	2r	0.r	1G	1b-
.	2d\	.	.	.
1r	2c\	.	1r	2a/
.	2B-\	.	.	1g
1r	1A	.	1r	.
.	.	.	.	2f#i/
=59	=59	=59	=59	=59
2r	1G	0.r	2r	1g
2G\	.	.	2G/	.
2F\	1r	.	2A/	1r
2G\	.	.	2B-\	.
2A\	1r	.	2A/	1r
2F\	.	.	[2d\	.
=60	=60	=60	=60	=60
1E	2r	0.r	2d\]	2r
.	2G/	.	2c\	2g/
1r	2d\	.	1r	2f/
.	2e\	.	.	2g/
1r	2f\	.	1r	2a/
.	[2d\	.	.	2f/
=61	=61	=61	=61	=61
1r	2d\]	0.r	1r	1e
.	2c#i\	.	.	.
2r	1d	.	2r	1r
2D\	.	.	2d\	.
2E\	1r	.	2c\	1r
2G\	.	.	2B-\	.
=62	=62	=62	=62	=62
1F	2r	0.r	1A	2r
.	2A/	.	.	2a/
1r	2B-\	.	1r	2g/
.	1d	.	.	2f/
1r	.	.	1r	1e
.	2c#i\	.	.	.
=63	=63	=63	=63	=63
2r	1d	0.r	2d\	0.r
2D\	.	.	2.f\	.
1F	1r	.	.	.
.	.	.	4e\	.
.	.	.	4d\	.
.	.	.	4c\	.
2G\	1r	.	2e-i\	.
[2B-\	.	.	2d\	.
=64	=64	=64	=64	=64
2B-\]	1r	0.r	1c	1r
2A\	.	.	.	.
1B-	2d\	.	1B-	2r
.	1f	.	.	2d/
1r	.	.	1r	1f
.	2d\	.	.	.
=65	=65	=65	=65	=65
0.r	2e-i\	0.r	1r	2g/
.	2d\	.	.	1b-
.	1c	.	1r	.
.	.	.	.	2a/
.	1B-	.	2r	4b-\
.	.	.	.	4a/
.	.	.	[2d\	4g/
.	.	.	.	4f/
=66	=66	=66	=66	=66
1r	0.r	0.r	2d\]	1e
.	.	.	2c\	.
2r	.	.	2d\	1d
1D	.	.	2B-\	.
.	.	.	[1A	1r
2C/	.	.	.	.
=67	=67	=67	=67	=67
2D\	1r	0.r	2A/]	2r
2BB-/	.	.	2G/	1dd
1AA	1r	.	1A	.
.	.	.	.	2cc\
1r	2r	.	1r	2dd\
.	[2d\	.	.	2b-\
=68	=68	=68	=68	=68
1r	2d\]	0.r	0.r	1a
.	2c\	.	.	.
2r	2d\	.	.	1r
1G	2B-\	.	.	.
.	1A	.	.	1r
2F\	.	.	.	.
=69	=69	=69	=69	=69
2G\	1r	0.r	0.r	2r
2B-\	.	.	.	1g
1A	1r	.	.	.
.	.	.	.	2f/
1G	2r	.	.	2g/
.	[2G/	.	.	2b-\
=70	=70	=70	=70	=70
0.r	2G/]	0.r	0.r	1a
.	2F/	.	.	.
.	2G/	.	.	2g/
.	2B-\	.	.	1dd
.	1A	.	.	.
.	.	.	.	2cc\
=71	=71	=71	=71	=71
0.r	2.d\	0.r	0.r	2b-\
.	.	.	.	1a
.	4c\	.	.	.
.	2B-\	.	.	.
.	4A/	.	.	1g
.	4G/	.	.	.
.	1A	.	.	.
.	.	.	.	2f#i/
=72	=72	=72	=72	=72
0GG	0G	0.r	1.G	1g
.	.	.	.	1r
.	.	.	1B-	.
1GG	1B-	.	.	1g
.	.	.	4A/	.
.	.	.	4G/	.
=73	=73	=73	=73	=73
1D	1A	[0.d	1F	2.a/
.	.	.	.	4g/
1r	2F/	.	1r	2a/
.	1.G	.	.	2.b-\
1GG	.	.	1G	.
.	.	.	.	4g/
.	.	.	.	2b-\
=74	=74	=74	=74	=74
0D	1D	0.d_	2.A/	2a/
.	.	.	.	2.dd\
.	.	.	4G/	.
.	1r	.	2A/	.
.	.	.	.	4cc\
.	.	.	2.B-\	1b-
1GG	1G	.	.	.
.	.	.	4G/	.
.	.	.	2B-\	4a/
.	.	.	.	4g/
=75	=75	=75	=75	=75
0D	2.A/	0.d]	1A	0f
.	4G/	.	.	.
.	2A/	.	1r	.
.	1B-	.	.	.
1GG	.	.	2.d\	1g
.	4A/	.	.	.
.	4G/	.	4e\	.
=76	=76	=76	=76	=76
0D	1F	[0.A	1f	1a
.	1r	.	2d\	2f/
.	.	.	1d	2d/
1AA	1r	.	.	1e
.	.	.	2c#i\	.
=77	=77	=77	=77	=77
0D	1f	0.A_	1d	2d/
.	.	.	.	2.f/
.	2d\	.	1r	.
.	.	.	.	4e/
.	2f\	.	.	1d
1AA	1e	.	1r	.
.	.	.	.	2c#i/
=78	=78	=78	=78	=78
0D	1d	0.A]	1f	1d
.	1D	.	2d\	2.a/
.	.	.	2f\	.
.	.	.	.	4b-\
1AA	2r	.	1e	1cc
.	2A/	.	.	.
=79	=79	=79	=79	=79
2r	2.B-\	[0.dl	1d	1dd
1D	.	.	.	.
.	4A/	.	.	.
.	2F/	.	2r	2a/
2GG/	1G	.	2G/	1b-
2.BB-/	.	.	2.d\	.
.	4F/	.	.	4a/
4C/	4E/	.	4e\	4g/
=80	=80	=80	=80	=80
2D\	0.D	0.d_	2f\	2f/
2GG/	.	.	1d	2.b-\
2.BB-/	.	.	.	.
.	.	.	.	4a/
.	.	.	4c\	1g
4C/	.	.	4B-\	.
1D	.	.	1A	.
.	.	.	.	2f#i/
=81	=81	=81	=81	=81
0.GGl	0.Gl	0.d]	0.Gl	0.gl
!!LO:LB:i:g=z
=82||	=82||	=82||	=82||	=82||
*>B	*>B	*>B	*>B	*>B
!!!OMD: Secunda pars: Ave virginum decus
*M2/1	*M2/1	*M2/1	*M2/1	*M2/1
*met(C|)	*met(C|)	*met(C|)	*met(C|)	*met(C|)
0r	0r	0r	0d	0a
=83	=83	=83	=83	=83
0r	0r	0r	1f	1a
.	.	.	1f	1a
=84	=84	=84	=84	=84
0r	0r	0r	1.g	1.b-
.	.	.	4f\	4a/
.	.	.	4e\	4g/
=85	=85	=85	=85	=85
0D	0A	0d	[0f	0a
=86	=86	=86	=86	=86
1F	1A	0A	0f]	0r
1F	1A	.	.	.
=87	=87	=87	=87	=87
0G	1.B-	0d	0r	0r
.	4A/	.	.	.
.	4G/	.	.	.
=88	=88	=88	=88	=88
0D	0A	0r	1r	1r
.	.	.	[1f	[1a
=89	=89	=89	=89	=89
0r	0r	0r	1f]	1a]
.	.	.	1e	1g
=90	=90	=90	=90	=90
0r	0r	0r	2d\	2f/
.	.	.	2B-\	2d/
.	.	.	1c	1e
=91	=91	=91	=91	=91
0GG	0B-	0G	[0d	2d/
.	.	.	.	1b-
.	.	.	.	4a/
.	.	.	.	4g/
=92	=92	=92	=92	=92
1D	1A	0D	0d_	0f
1D	1A	.	.	.
=93	=93	=93	=93	=93
0GG	1.B-	0G	0d]	0r
.	4A/	.	.	.
.	4G/	.	.	.
=94	=94	=94	=94	=94
0D	0A	0r	1r	1.f
.	.	.	1d	.
.	.	.	.	2g/
=95	=95	=95	=95	=95
0r	0r	0r	1c	2a/
.	.	.	.	4b-\
.	.	.	.	4cc\
.	.	.	1d	2b-\
.	.	.	.	[2a/
=96	=96	=96	=96	=96
0r	0r	0r	2G/	2a/]
.	.	.	2B-\	1g
.	.	.	1A	.
.	.	.	.	2f#i/
=97	=97	=97	=97	=97
1G	1r	0d	0G	0g
1G	1d	.	.	.
=98	=98	=98	=98	=98
2A\	1c	0A	0r	0r
1F#i	.	.	.	.
.	1A	.	.	.
4E\	.	.	.	.
4F#i\	.	.	.	.
=99	=99	=99	=99	=99
0G	0B-	0d	1G	1r
.	.	.	1G	1dd
=100	=100	=100	=100	=100
0r	0A	0r	2A/	1cc
.	.	.	1F#i	.
.	.	.	.	1a
.	.	.	4E/	.
.	.	.	4F#i/	.
=101	=101	=101	=101	=101
1G	1r	0r	0G	0b-
1G	1d	.	.	.
=102	=102	=102	=102	=102
2A\	1c	0r	0r	0a
1F#i	.	.	.	.
.	1A	.	.	.
4E\	.	.	.	.
4F#i\	.	.	.	.
=103	=103	=103	=103	=103
0G	0B-	0G	[0d	1g
.	.	.	.	1g
=104	=104	=104	=104	=104
0r	0A	0D	0d_	2a/
.	.	.	.	1f#i
.	.	.	.	4e/
.	.	.	.	4f#i/
=105	=105	=105	=105	=105
0r	0G	0G	0d]	0g
=106	=106	=106	=106	=106
1B-	0r	0r	0r	1dd
1F	.	.	.	1cc
=107	=107	=107	=107	=107
1G	1G	1r	1g	1b-
1D	2d\	1d	1f	1a
.	[2d\	.	.	.
=108	=108	=108	=108	=108
0r	2d\]	1A	1e	0r
.	2c#i\	.	.	.
.	1d	1d	1d	.
=109	=109	=109	=109	=109
1D	1d	0r	0r	1f
1E	1r	.	.	1g
=110	=110	=110	=110	=110
1F	1r	1r	1c	1a
1G	2r	1G	1B-	2b-\
.	[2d\	.	.	[2g/
=111	=111	=111	=111	=111
1r	2d\]	1D	1A	2g/]
.	2c\	.	.	2f/
1GG	2B-\	1G	1G	2g/
.	4A/	.	.	[2dd\
.	4G/	.	.	.
=112	=112	=112	=112	=112
1AA	1F#i	0r	1r	2dd\]
.	.	.	.	2cc\
1GG	1G	.	1G	2b-\
.	.	.	.	4a/
.	.	.	.	4g/
=113	=113	=113	=113	=113
0r	1r	1r	1A	1f#i
.	1B-	1d	1G	2g/
.	.	.	.	2d/
=114	=114	=114	=114	=114
0r	1c	1A	1r	1e
.	1d	1d	1B-	2d/
.	.	.	.	2f/
=115	=115	=115	=115	=115
1r	1r	0r	1c	1e
1G	1B-	.	1d	1d
=116	=116	=116	=116	=116
1A	1c	1r	1r	2r
.	.	.	.	2a/
1G	[1d	1G	2r	2b-\
.	.	.	2B-\	4a/
.	.	.	.	4g/
=117	=117	=117	=117	=117
0r	1d]	1D	1A	1f#i
.	1r	1G	[1G	1g
=118	=118	=118	=118	=118
0r	0r	0r	1G]	1g
.	.	.	1G	[1dd
=119	=119	=119	=119	=119
1r	1G	1r	0d	1dd]
1GG	[1d	1d	.	1r
=120	=120	=120	=120	=120
0D	1d]	1A	1r	1r
.	1r	1d	1f	1a
=121	=121	=121	=121	=121
1GG	0r	0r	1g	1b-
1D	.	.	2d\	2a/
.	.	.	[2f\	[2dd\
=122	=122	=122	=122	=122
1BB-	0r	1r	4f\]	4dd\]
.	.	.	4e\	4cc\
.	.	.	1d	1b-
1GG	.	1G	.	.
.	.	.	4c\	4a/
.	.	.	4B-\	4g/
=123	=123	=123	=123	=123
1D	0r	1D	1A	2.f#i/
.	.	.	.	4e/
1GG	.	1G	1G	1g
=124	=124	=124	=124	=124
*M3/1	*M3/1	*M3/1	*M3/1	*M3/1
*met(3)	*met(3)	*met(3)	*met(3)	*met(3)
1G	1G	0.r	0.r	1g
1G	1G	.	.	1g
1E	1G	.	.	1g
=125	=125	=125	=125	=125
0D	0A	1d	0.r	1f
.	.	1A	.	1.a
1D	1F	1d	.	.
.	.	.	.	2g/
=126	=126	=126	=126	=126
1E	1G	0.r	0.r	1g
0D	0A	.	.	1.f#i
.	.	.	.	2e/
=127	=127	=127	=127	=127
0GG	0G	1G	[0.B-	1g
.	.	1D	.	1.dd
1r	1r	1G	.	.
.	.	.	.	2cc\
=128	=128	=128	=128	=128
0GG	0G	0.r	0.B-]	1.b-
.	.	.	.	2a/
1GG	1G	.	.	1g
=129	=129	=129	=129	=129
0D	1A	1d	0A	1f
.	1F	1A	.	1.a
1BB-	1G	1d	1r	.
.	.	.	.	2g/
=130	=130	=130	=130	=130
1GG	1B-	0.r	1.d	1g
0D	0A	.	.	1.f#i
.	.	.	2c\	.
.	.	.	1A	.
.	.	.	.	2e/
=131	=131	=131	=131	=131
0.GG	0G	1G	1B-	1g
.	.	1D	1.G	1.b-
.	1d	1G	.	.
.	.	.	2F/	2a/
=132	=132	=132	=132	=132
0D	1A	0.r	0.A	[0.f#
.	1d	.	.	.
1AA	1r	.	.	.
=133	=133	=133	=133	=133
[0.D	0.r	1d	1A	0.f#_
.	.	1A	1d	.
.	.	1d	1A	.
=134	=134	=134	=134	=134
0.D]	1r	0.r	0.d	0.f#]
.	1d	.	.	.
.	1A	.	.	.
=135	=135	=135	=135	=135
0.r	0.d	1G	0.r	1b-
.	.	1D	.	1a
.	.	1G	.	1g
=136	=136	=136	=136	=136
0BB-	1r	0.r	0.f	0dd
.	1B-	.	.	.
1F	1A	.	.	1cc
=137	=137	=137	=137	=137
1G	1G	1d	0d	1b-
1F	1A	1A	.	1.a
1D	1F	1d	1d	.
.	.	.	.	2g/
=138	=138	=138	=138	=138
1E	1G	0.r	1c	0g
0D	0A	.	0d	.
.	.	.	.	1f#i
=139	=139	=139	=139	=139
0.GG	0.G	1G	0.B-	0.g
.	.	1D	.	.
.	.	1G	.	.
=140	=140	=140	=140	=140
*M2/1	*M2/1	*M2/1	*M2/1	*M2/1
*met(C|2)	*met(C|2)	*met(C|2)	*met(C|2)	*met(C|2)
0G	00r	00r	0G	00r
1F	.	.	1A	.
1F	.	.	1A	.
=141	=141	=141	=141	=141
0G	0d	0r	0B-	0g
0D	1f	0d	0A	1a
.	1d	.	.	[1dd
=142	=142	=142	=142	=142
0r	0e	0A	0.r	1dd]
.	.	.	.	1cc
0D	0d	0d	.	1.dd
.	.	.	[1d	.
.	.	.	.	4cc\
.	.	.	.	4b-\
=143	=143	=143	=143	=143
1F	0.r	00r	1d]	1a
1F	.	.	1c	1a
0G	.	.	0B-	1.b-
.	[1d	.	.	.
.	.	.	.	4a/
.	.	.	.	4g/
=144	=144	=144	=144	=144
0D	1d]	0r	0A	1f
.	1c	.	.	1a
1r	0B-	0G	1G	1b-
1GG	.	.	[1d	[1g
=145	=145	=145	=145	=145
0D	0A	0D	0d]	1g]
.	.	.	.	1f#i
0GG	0G	0G	1B-	0g
.	.	.	1B-	.
=146	=146	=146	=146	=146
0G	00r	00r	1G	00r
.	.	.	1B-	.
1F	.	.	1A	.
1D	.	.	[1d	.
=147	=147	=147	=147	=147
0E	1r	0r	1d]	1g
.	1g	.	1c#i	1g
0D	1f	0d	0d	1a
.	1d	.	.	[1dd
=148	=148	=148	=148	=148
0r	0e	0A	0.r	1dd]
.	.	.	.	1cc
0D	0d	0d	.	0dd
.	.	.	[1d	.
=149	=149	=149	=149	=149
1F	0.r	00r	1d]	0a
1F	.	.	1c	.
0G	.	.	0B-	1.b-
.	[1d	.	.	.
.	.	.	.	4a/
.	.	.	.	4g/
=150	=150	=150	=150	=150
0D	1d]	0r	0A	1f
.	1c	.	.	1a
1r	0B-	0G	1G	1b-
1GG	.	.	[1d	[1g
=151	=151	=151	=151	=151
0D	0A	0D	0d]	1g]
.	.	.	.	1f#i
0GG	0G	0G	0B-	0g
=152	=152	=152	=152	=152
0G	00r	00r	1G	00r
.	.	.	1B-	.
1F	.	.	1A	.
1D	.	.	[1d	.
=153	=153	=153	=153	=153
0E	1r	0r	1d]	1g
.	1g	.	1c#i	1g
0D	1f	0d	0d	1a
.	1d	.	.	[1dd
=154	=154	=154	=154	=154
0r	0e	0A	0.r	1dd]
.	.	.	.	1cc
0D	0d	0d	.	1.dd
.	.	.	[1d	.
.	.	.	.	4cc\
.	.	.	.	4b-\
=155	=155	=155	=155	=155
1F	0.r	00r	1d]	1a
1F	.	.	1c	1a
0G	.	.	0B-	1.b-
.	[1d	.	.	.
.	.	.	.	4a/
.	.	.	.	4g/
=156	=156	=156	=156	=156
0D	1d]	0r	0A	1f
.	1c	.	.	1a
1r	0B-	0G	1G	1b-
1GG	.	.	[1d	[1g
=157	=157	=157	=157	=157
0D	0A	0D	0d]	1g]
.	.	.	.	1f#i
0GG	0G	0G	0B-	0g
=158	=158	=158	=158	=158
0G	00r	00r	0G	00r
1F	.	.	1A	.
1F	.	.	1A	.
=159	=159	=159	=159	=159
0G	0d	0r	0B-	0g
0D	1f	0d	0A	1a
.	1d	.	.	[1dd
=160	=160	=160	=160	=160
0r	0e	0A	0.r	1dd]
.	.	.	.	1cc
0D	0d	0d	.	1.dd
.	.	.	[1d	.
.	.	.	.	4cc\
.	.	.	.	4b-\
=161	=161	=161	=161	=161
1F	0.r	00r	1d]	1a
1F	.	.	1c	1a
0G	.	.	0B-	1.b-
.	[1d	.	.	.
.	.	.	.	4a/
.	.	.	.	4g/
=162	=162	=162	=162	=162
0D	1d]	0r	0A	1f
.	1c	.	.	1a
1r	0B-	0G	0G	1b-
1GG	.	.	.	[1g
=163	=163	=163	=163	=163
0D	0A	0D	00r	1g]
.	.	.	.	1f#i
0GG	0G	0G	.	1g
.	.	.	.	[1dd
=164	=164	=164	=164	=164
00G	00B-	00r	[00d;l	1dd]
.	.	.	.	1cc
.	.	.	.	1.b-
.	.	.	.	4a/
.	.	.	.	4g/
=165	=165	=165	=165	=165
[00D	[00A	0r	00d_	[00f#i
.	.	0d	.	.
=166	=166	=166	=166	=166
00D;]	00A;]	0A	00d_	00f#;]
.	.	[0dl	.	.
=167	=167	=167	=167	=167
00GGl	00Gl	00d]	00d]	00gl
==168	==168	==168	==168	==168
*-	*-	*-	*-	*-
!!!RDF**kern: l=long note in original notation
!!!RDF**kern: i=editorial accidental
!!!ENC:	Jesse Rodin; Victoria Chang 2011/05/10
!!!END:	2011/08/05/
!!!SMS:	Cappella Sistina 15
!!!EED:	Jesse Rodin
!!!EEV:	2011/08/05/
!!attribution-level@Jos: 1 (secure)
!!!ONB:	Translated from MusicXML and edited on 2011/08/05/ by Craig Sapp
!!muse2ps: u^(2) @{OTL2}^C^@{COM}\n@{SCT}^i2I150v90,90,90,90,130c82Q16
